!!!!SEGMENT: pl-wnifc--1890-n--001_dobrzynski-ignacy-feliks--symfonia-charakterystyczna-op-15-introduzione.krn
!!!cenid: 18xx:3879
!!!COM: Dobrzyński, Ignacy Feliks
!!!COM-rismID: pe30020642
!!!CDT: 1807/02/15-1867/10/09
!!!CNT: Polish
!!!OPR: Symfonia Charakterystyczna op. 15
!!!OTL: Introduzione
!!!OMV: 001
!!!PDT:
!!!AGN:
!!!SMS-siglum: PL-Wnifc
!!!SMS-shelfmark: 1890/n
!!!SMS-shelfwork: 001-001 M
!!!SMS-variant:
!!!SMS-altvar:
!!!NIFC-rismSourceID: 1001156159
!!!NIFC-rismChildID: 1001156159
!!!NIFC-islandoraID: nifc:211817
!!!URL-pdf-islandora: https://repozytorium.nifc.pl/islandora/object/nifc%3A211817/datastream/PDF/view
!!!URL-scan: https://polish.musicsources.pl/pl/lokalizacje/galeria/druki-muzyczne/16805 @EN{Scan on Polish Music Sources Website} @PL{Skany w portalu Dziedzictwo Muzyki Polskiej w otwartym dostępie}
!!!ONB-nifc: UWAGA: części: 1. Introduzione i 2. Allegro vivace (od str. 6)
!!!AIN: 4 piano
!!!key: c
**kern	**kern	**dynam	**kern	**dynam	**kern	**dynam
*part4	*part3	*part3	*part2	*part2	*part1	*part1
*staff4	*staff3	*	*staff2	*	*staff1	*
*I"Secondo.	*I"Secondo.	*	*I"Primo.	*	*I"Primo.	*
*I'pf II	*I'pf II	*	*I'pf I	*	*I'pf I	*
*ICklav	*ICklav	*	*ICklav	*	*ICklav	*
*Ipiano	*Ipiano	*	*Ipiano	*	*Ipiano	*
*clefF4	*clefF4	*	*clefG2	*	*clefG2	*
*k[b-e-a-]	*k[b-e-a-]	*	*k[b-e-a-]	*	*k[b-e-a-]	*
*c:	*c:	*	*c:	*	*c:	*
*M3/4	*M3/4	*	*M3/4	*	*M3/4	*
!	!LO:TX:a:B:t=Andante sostenuto.	!	!	!	!LO:TX:a:B:t=Andante sostenuto.	!
16CC/ 16C	16E-\ 16G 16c	ff	16e-/ 16g 16cc	.	16ee-\ 16gg 16ccc	ff
=1	=1	=1	=1	=1	=1	=1
*tremolo	*	*	*	*	*	*
!LO:TX:a:i:t=trem.	!	!	!	!	!	!
32CC;/LLL	2.E-;\ 2.G 2.c	.	2.e-;/ 2.g 2.cc	.	2.ee-;\ 2.gg 2.ccc	.
32C/	.	.	.	.	.	.
32CC/	.	.	.	.	.	.
32C/	.	.	.	.	.	.
32CC/	.	.	.	.	.	.
32C/	.	.	.	.	.	.
32CC/	.	.	.	.	.	.
32C/	.	.	.	.	.	.
32CC/	.	.	.	.	.	.
32C/	.	.	.	.	.	.
32CC/	.	.	.	.	.	.
32C/	.	.	.	.	.	.
32CC/	.	.	.	.	.	.
32C/	.	.	.	.	.	.
32CC/	.	.	.	.	.	.
32C/	.	.	.	.	.	.
32CC/	.	.	.	.	.	.
32C/	.	.	.	.	.	.
32CC/	.	.	.	.	.	.
32C/	.	.	.	.	.	.
32CC/	.	.	.	.	.	.
32C/	.	.	.	.	.	.
32CC/	.	.	.	.	.	.
32C/JJJ	.	.	.	.	.	.
=2	=2	=2	=2	=2	=2	=2
!	!LO:TX:a:t=Cello	!	!LO:TX:a:t=1	!	!LO:TX:a:t=1	!
4r	(4e-\	p	2.r	.	2.r	.
4r	4G\	.	.	.	.	.
!LO:TX:a:t=Fag.	!	!	!	!	!	!
(4E-\ 4G	4c\)	.	.	.	.	.
=3	=3	=3	=3	=3	=3	=3
2F\) 2A-	(8.Bn\L	.	4r	.	4r	.
.	16c\Jk	.	.	.	.	.
.	4d\)	.	4r	.	4r	.
8.r	8.r	.	8.r	.	8.r	.
*	*	*	*	*	*8va	*
16GGG/ 16GG	16G\ 16Bn 16d	ff	16bn\ 16dd 16gg	.	16bbn\ 16ddd 16ggg	ff
=4	=4	=4	=4	=4	=4	=4
!LO:TX:a:i:t=trem.	!	!	!	!	!	!
32GGG;/LLL	2.G;\ 2.Bn 2.d	.	2.bn;\ 2.dd 2.gg	.	2.bbn;\ 2.ddd 2.ggg	.
32GG/	.	.	.	.	.	.
32GGG/	.	.	.	.	.	.
32GG/	.	.	.	.	.	.
32GGG/	.	.	.	.	.	.
32GG/	.	.	.	.	.	.
32GGG/	.	.	.	.	.	.
32GG/	.	.	.	.	.	.
32GGG/	.	.	.	.	.	.
32GG/	.	.	.	.	.	.
32GGG/	.	.	.	.	.	.
32GG/	.	.	.	.	.	.
32GGG/	.	.	.	.	.	.
32GG/	.	.	.	.	.	.
32GGG/	.	.	.	.	.	.
32GG/	.	.	.	.	.	.
32GGG/	.	.	.	.	.	.
32GG/	.	.	.	.	.	.
32GGG/	.	.	.	.	.	.
32GG/	.	.	.	.	.	.
32GGG/	.	.	.	.	.	.
32GG/	.	.	.	.	.	.
32GGG/	.	.	.	.	.	.
32GG;/JJJ	.	.	.	.	.	.
*	*	*	*	*	*X8va	*
!LO:LB:g=original	!	!	!	!	!	!
=5	=5	=5	=5	=5	=5	=5
!	!LO:TX:a:t=Cello	!	!LO:TX:a:t=2	!	!LO:TX:a:t=2	!
!	!	!	!LO:N:vis=0	!	!LO:N:vis=0	!
4r	(>4f\	p	1.r	.	1.r	.
4r	4G\	.	.	.	.	.
!LO:TX:a:t=Fag.	!	!	!	!	!	!
4F^<\ 4A-	4d\)	.	.	.	.	.
=6	=6	=6	=6	=6	=6	=6
(8.E-\L 8.G	(8.c\L	.	.	.	.	.
16D\Jk 16F	16d\Jk	.	.	.	.	.
4C\) 4E-	4e-\)	.	.	.	.	.
4r	4r	.	.	.	.	.
=7	=7	=7	=7	=7	=7	=7
!LO:TX:a:t=6	!LO:TX:a:t=6	!	!	!	!LO:TX:a:t=Vni	!
!LO:N:vis=00	!LO:N:vis=00	!	!	!	!	!
0.r	0.r	.	4r	.	(4ee-\	p
.	.	.	4r	.	4e-/	.
.	.	.	(>4c/ 4e-	.	[4a-^>/	.
=8	=8	=8	=8	=8	=8	=8
.	.	.	2d-X^>/) 2f-X	.	4a-/]	.
.	.	.	.	.	4g/)	.
.	.	.	4r	.	4r	.
!	!	!	!LO:LB:g=original	!	!	!
=9	=9	=9	=9	=9	=9	=9
.	.	.	4r	.	8.ee-\L	.
.	.	.	.	.	16ee-\Jk	.
.	.	.	4r	.	4e-/	.
.	.	.	4c/ 4e-	.	4a-/	.
=10	=10	=10	=10	=10	=10	=10
.	.	.	.	.	(16qqg/LL	.
.	.	.	.	.	16qqa-/	.
.	.	.	.	.	16qqb-/JJ	.
.	.	.	2d-X^>/ 2f-X	.	(4a-^>/)	.
.	.	.	.	.	4g/)	.
.	.	.	4r	.	8.r	.
.	.	.	.	.	16b-\	.
=11	=11	=11	=11	=11	=11	=11
!LO:N:vis=0	!LO:N:vis=0	!	!	!	!	!LO:TX:t=cresc.:dur=3q2s5e:ext=ud:problem:text with extention lines
1.r	1.r	.	2e-^>/ 2g-X	.	(4b-^<\	<
.	.	.	.	.	4an\)	.
.	.	.	8.r	.	8.r	.
.	.	.	16e-/ 16g-	.	16cc\	.
=12	=12	=12	=12	=12	=12	=12
.	.	.	4d-X/ 4f	.	(4.cc\	.
.	.	.	4r	.	.	.
.	.	.	.	.	8b-\L	.
.	.	.	4r	.	8dd-X\	.
.	.	.	.	.	8cc\J)	.
=13	=13	=13	=13	=13	=13	=13
4r	4r	.	2.r	.	(8ee-\L	>
.	.	.	.	.	8dd-X\	.
4r	4r	.	.	.	8gg\	.
.	.	.	.	.	8ff\	.
4DD-X/ 4D-X	4d-X\ 4f	p	.	.	8dd-\	.
!	!	!	!	!	!LO:TX:t:b:t=+:color=grey	!
!	!	!	!	!	!LO:TX:t=P:problem: + zapisany ołówkiem	!
.	.	.	.	.	8b-\J)	]
!	!	!	!LO:LB:g=original	!	!	!
=14	=14	=14	=14	=14	=14	=14
[2.EE-/ [2.E-	[4c\ [4e-	.	2.r	.	2.a-/	p
.	8.c\L] 8.e-]	.	.	.	.	.
.	16d-X\Jk 16f	.	.	.	.	.
.	4c\ 4e-	.	.	.	.	.
!LO:LB:g=original	!	!	!	!	!	!
=15	=15	=15	=15	=15	=15	=15
.	.	.	.	.	(16qqf/LL	.
.	.	.	.	.	16qqg/	.
.	.	.	.	.	16qqa-/JJ	.
4EE-/_ 4E-_	2.B-\ 2.d-X	.	2.r	.	2.gt/)	>
8.EE-/L] 8.E-]	.	.	.	.	.	]
16FF-X/Jk 16F-X	.	.	.	.	.	.
4EE-/ 4E-	.	.	.	.	.	.
=16	=16	=16	=16	=16	=16	=16
!LO:TX:a:i:t=e staccato	!	!	!	!	!LO:TX:t:b:t=4:color=grey	!
!	!	!	!	!	!LO:TX:t=P:problem: 4 zapisana ołówkiem	!
!	!	!	!	!	!LO:TX:t=P:problem: 16qqf i 16qqg przynależą do t. 15, Verovio po wpisaniu do odpowiedniego taktu jak w źródle wyświetla błąd	!
.	.	.	.	.	16qqf/LL	.
.	.	.	.	.	16qqg/JJ	.
4AAA-/ 4AA-	8A-\L 8c	p	2.r	.	4a-/	.
.	8E-\J 8A- 8c	.	.	.	.	.
!	!LO:TX:b:i:t=poco più di moto	!	!	!	!	!
4EEE-/ 4EE-	8E-\L 8A- 8c	.	.	.	4r	.
.	8E-\ 8A- 8c	.	.	.	.	.
!	!	!	!	!	!LO:TX:b:i:t=poco più di moto	!
4AAA-/ 4AA-	8E-\ 8A- 8c	.	.	.	4r	.
.	8E-\J 8A- 8c	.	.	.	.	.
=17	=17	=17	=17	=17	=17	=17
8.AAA-/L 8.AA-	8E-\L 8A- 8c	.	4r	.	4r	.
.	8E-\ 8A- 8c	.	.	.	.	.
16BBB-/Jk 16BB-	.	.	.	.	.	.
4CC/ 4C	8E-\ 8A- 8c	.	8r	.	8r	.
*	*	*	*	*	*8va	*
!	!	!	!	!	!LO:TX:a:t=Fl.	!
.	8E-\ 8A- 8c	.	(8cc\L	.	(8ccc\L	<
4r	8E-\ 8A- 8c	.	8dd-X\	.	8ddd-X\	.
.	8E-\J 8A- 8c	.	8ddn\J	.	8dddn\J	[
=18	=18	=18	=18	=18	=18	=18
4EEE-/ 4EE-	8E-\L 8G 8B- 8d-X	.	4ff^<\	.	4fff\	>
.	8E-\ 8G 8B- 8d-	.	.	.	.	.
4r	8E-\ 8G 8B- 8d-	.	8ee-\)	.	8eee-\)	]
*	*	*	*	*	*X8va	*
.	8E-\ 8G 8B- 8d-	.	(8g/L	.	(8gg\L	<
4r	8E-\ 8G 8B- 8d-	.	8a-/	.	8aa-\	.
.	8E-\J 8G 8B- 8d-	.	8an/J	.	8aan\J	[
=19	=19	=19	=19	=19	=19	=19
2.EEE-/ 2.EE-	8E-\L 8G 8B- 8d-X	.	4cc^<\	.	4ccc\	>
.	8E-\ 8G 8B- 8d-	.	.	.	.	.
.	8E-\ 8G 8B- 8d-	.	8b-\)	.	8bb-\)	]
.	8E-\J 8G 8B- 8d-	.	(8f-X/L	.	(8ff-X\L	>
!	!	!	!LO:TX:a:t=Cor.	!	!LO:TX:a:t=Ob.	!
.	8E-\L 8G 8B-	.	8e-/	.	8ee-\	.
.	8E-\J 8G 8B-	.	8d-X/J	.	8dd-X\J	]
!LO:LB:g=original	!	!	!LO:LB:g=original	!	!	!
=20	=20	=20	=20	=20	=20	=20
4AAA-/ 4AA-	8E-\L 8A-	.	4c/)	.	4cc\)	.
.	8C\J 8E- 8A-	.	.	.	.	.
4EEE-/ 4EE-	8C\L 8E- 8A-	.	4r	.	4r	.
.	8C\ 8E- 8A-	.	.	.	.	.
4AAA-/ 4AA-	8C\ 8E- 8A-	.	4r	.	4r	.
.	8C\J 8E- 8A-	.	.	.	.	.
=21	=21	=21	=21	=21	=21	=21
8.AAA-/L 8.AA-	8E-\L 8A- 8c	.	4r	.	4r	.
.	8E-\J 8A- 8c	.	.	.	.	.
16BBB-/Jk 16BB-	.	.	.	.	.	.
4CC/ 4C	8E-\L 8A- 8c	<	8r	.	8r	.
*	*	*	*	*	*8va	*
.	8c\ 8e-	.	(8bn\L	.	(8bbn\L	<
((4GGG-X/ 4GG-X	8c\ 8e-	.	8cc\	.	8ccc\	.
.	8c\J 8e-	[	8ee-\J	.	8eee-\J	[
=22	=22	=22	=22	=22	=22	=22
4FFF/)) 4FF	8An\L 8c 8e-	>	4gg-X^<\	.	4ggg-X\	>
.	8A\ 8c 8e-	.	.	.	.	.
4r	8A\ 8c 8e-	]	8ff\)	.	8fff\)	]
.	8A\ 8c 8e-	.	(8an\L	.	(8aan\L	<
4r	8A\ 8c 8e-	.	8b-\	.	8bb-\	.
.	8A\J 8c 8e-	.	8bn\J	.	8bbn\J	[
=23	=23	=23	=23	=23	=23	=23
4FF/	8An\L 8c 8e-	.	4dd-X^<\	.	4ddd-X\	>
.	8A\ 8c 8e-	.	.	.	.	.
4r	8A\ 8c 8e-	.	8cc\)	.	8ccc\)	]
*	*	*	*	*	*X8va	*
!	!	!	!	!LO:HP:a	!	!
.	8A\J 8c 8e-	.	(8g-X/L	>	(8gg-X\L	>
4r	8F\L 8A 8c	.	8f/	.	8ff\	.
.	8F\J 8A 8c	.	8e-/J	]	8ee-\J	]
=24	=24	=24	=24	=24	=24	=24
4BB-'/	8F\L 8B-	.	8d-X/)	.	4dd-X\)	.
.	8F\J 8B- 8d-X	.	8r	.	.	.
4FF'/	8F\L 8B- 8d-	.	4r	.	4r	.
.	8F\ 8B- 8d-	.	.	.	.	.
4BB-'/	8F\ 8B- 8d-	.	4r	.	4r	.
.	8F\J 8B- 8d-	.	.	.	.	.
!!LO:PB:g=original	!	!	!LO:PB:g=original	!	!	!
=25	=25	=25	=25	=25	=25	=25
8.BB-/L	8F\L 8B- 8d-X	.	4r	.	4r	.
.	8F\ 8B- 8d-	.	.	.	.	.
16C/Jk	.	.	.	.	.	.
4D-X/	8F\ 8B- 8d-	.	8r	.	8r	.
*	*	*	*	*	*8va	*
.	8F\J 8B- 8d-	.	(8an\L	.	(8aan\L	<
(4AA-^>/	8F-X^<\L 8B- 8d-	.	8b-\	.	8bb-\	.
.	8F-\J 8B- 8d-	.	8cc\J	.	8ccc\J	[
=26	=26	=26	=26	=26	=26	=26
4GG/)	8E-\L 8B- 8d-X	.	4ee-^<\	.	4eee-\	>
.	8E-\ 8B- 8d-	.	.	.	.	.
4r	8E-\ 8B- 8d-	.	8dd-X\)	.	8ddd-X\)	]
*	*	*	*	*	*X8va	*
.	8E-\ 8B- 8d-	.	(8g/L	.	(8gg\L	<
4r	8E-\ 8B- 8d-	.	8a-/	.	8aa-\	.
.	8E-\J 8B- 8d-	.	8an/J	.	8aan\J	[
=27	=27	=27	=27	=27	=27	=27
2.EE-/	8E-\L 8G-yX 8B- 8d-X	.	4cc/	.	4ccc\	>
.	8E-\ 8G- 8B- 8d-	.	.	.	.	.
.	8E-\ 8G- 8B- 8d-	.	8b-/)	.	8bb-\)	]
!	!	!	!	!LO:HP:a	!	!
.	8E-\J 8G- 8B- 8d-	.	(8f-X/L	>	(8ff-X\L	>
.	8E-\L 8G- 8B-	.	8e-/	.	8ee-\	.
.	8E-\J 8G- 8B-	.	8d-X/J)	]	8dd-X\J)	]
=28	=28	=28	=28	=28	=28	=28
*	*tremolo	*	*tremolo	*	*	*
4AAA-/ 4AA-	32A-\LLL	ff	32c/LLL	.	4cc\	.
!	!	!	!LO:TX:a:i:t=trem.	!	!	!
.	32E-\	.	32e-/	.	.	.
.	32A-\	.	32c/	.	.	.
.	32E-\	.	32e-/	.	.	.
.	32A-\	.	32c/	.	.	.
.	32E-\	.	32e-/	.	.	.
.	32A-\	.	32c/	.	.	.
.	32E-\	.	32e-/	.	.	.
*	*	*	*	*	*8va	*
*	*	*	*	*	*tremolo	*
!	!	!	!	!	!LO:TX:a:i:t=trem.	!
4EEE-/ 4EE-	32A-\	.	32c/	.	32ccc\LLL	ff
.	32E-\	.	32e-/	.	32aaa-\	.
.	32A-\	.	32c/	.	32ccc\	.
.	32E-\	.	32e-/	.	32aaa-\	.
.	32A-\	.	32c/	.	32ccc\	.
.	32E-\	.	32e-/	.	32aaa-\	.
.	32A-\	.	32c/	.	32ccc\	.
.	32E-\	.	32e-/	.	32aaa-\	.
4AAA-/ 4AA-	32A-\	.	32c/	.	32ccc\	.
.	32E-\	.	32e-/	.	32aaa-\	.
.	32A-\	.	32c/	.	32ccc\	.
.	32E-\	.	32e-/	.	32aaa-\	.
.	32A-\	.	32c/	.	32ccc\	.
.	32E-\	.	32e-/	.	32aaa-\	.
.	32A-\	.	32c/	.	32ccc\	.
.	32E-\JJJ	.	32e-/JJJ	.	32aaa-\JJJ	.
=29	=29	=29	=29	=29	=29	=29
8.AAA-/L 8.AA-	32A-\LLL 32c	.	32e-/LLL 32a-	.	32ccc\LLL	.
.	32E-\	.	32cc/	.	32aaa-\	.
.	32A-\ 32c	.	32e-/ 32a-	.	32ccc\	.
.	32E-\	.	32cc/	.	32aaa-\	.
.	32A-\ 32c	.	32e-/ 32a-	.	32ccc\	.
.	32E-\	.	32cc/	.	32aaa-\	.
16BBB-/Jk 16BB-	32A-\ 32c	.	32e-/ 32a-	.	32ccc\	.
.	32E-\	.	32cc/	.	32aaa-\JJJ	.
4CC/ 4C	32A-\ 32c	.	32e-/ 32a-	.	4ccc\ 4aaa-	.
.	32E-\	.	32cc/	.	.	.
.	32A-\ 32c	.	32e-/ 32a-	.	.	.
.	32E-\	.	32cc/	.	.	.
.	32A-\ 32c	.	32e-/ 32a-	.	.	.
.	32E-\	.	32cc/	.	.	.
.	32A-\ 32c	.	32e-/ 32a-	.	.	.
.	32E-\	.	32cc/	.	.	.
4AAA-/ 4AA-	32A-\ 32c	.	32e-/ 32a-	.	8.ccc\L 8.cccc	.
.	32E-\	.	32cc/	.	.	.
.	32A-\ 32c	.	32e-/ 32a-	.	.	.
.	32E-\	.	32cc/	.	.	.
.	32A-\ 32c	.	32e-/ 32a-	.	.	.
.	32E-\	.	32cc/	.	.	.
.	32A-\ 32c	.	32e-/ 32a-	.	16ddd\Jk 16dddd	.
.	32E-\JJJ	.	32cc/JJJ	.	.	.
!LO:LB:g=original	!	!	!	!	!	!
=30	=30	=30	=30	=30	=30	=30
4GGG/ 4GG	32G\LLL 32c	.	32e-/LLL 32g	.	4eee-\ 4eeee-	.
.	32E-\	.	32cc/	.	.	.
.	32G\ 32c	.	32e-/ 32g	.	.	.
.	32E-\	.	32cc/	.	.	.
.	32G\ 32c	.	32e-/ 32g	.	.	.
.	32E-\	.	32cc/	.	.	.
.	32G\ 32c	.	32e-/ 32g	.	.	.
.	32E-\	.	32cc/	.	.	.
4GGG/	32G\ 32c	.	32e-/ 32g	.	32ccc\LLL 32eee-	.
.	32E-\	.	32cc/	.	32cccc\	.
.	32G\ 32c	.	32e-/ 32g	.	32ccc\ 32eee-	.
.	32E-\	.	32cc/	.	32cccc\	.
.	32G\ 32c	.	32e-/ 32g	.	32ccc\ 32eee-	.
.	32E-\	.	32cc/	.	32cccc\	.
.	32G\ 32c	.	32e-/ 32g	.	32ccc\ 32eee-	.
.	32E-\	.	32cc/	.	32cccc\	.
4GGG/ 4GG	32G\ 32c	.	32e-/ 32g	.	32ccc\ 32eee-	.
.	32E-\	.	32cc/	.	32cccc\	.
.	32G\ 32c	.	32e-/ 32g	.	32ccc\ 32eee-	.
.	32E-\	.	32cc/	.	32cccc\	.
.	32G\ 32c	.	32e-/ 32g	.	32ccc\ 32eee-	.
.	32E-\	.	32cc/	.	32cccc\	.
.	32G\ 32c	.	32e-/ 32g	.	32ccc\ 32eee-	.
.	32E-\JJJ	.	32cc/JJJ	.	32cccc\JJJ	.
!	!	!	!LO:LB:g=original	!	!	!
=31	=31	=31	=31	=31	=31	=31
8.GGG/L 8.GG	32G\LLL 32c	.	32e-/LLL 32g	.	32ccc\LLL 32eee-	.
.	32E-\	.	32cc/	.	32cccc\	.
.	32G\ 32c	.	32e-/ 32g	.	32ccc\ 32eee-	.
.	32E-\	.	32cc/	.	32cccc\	.
.	32G\ 32c	.	32e-/ 32g	.	32ccc\ 32eee-	.
.	32E-\	.	32cc/	.	32cccc\	.
16BBBn/Jk 16BBn	32G\ 32c	.	32e-/ 32g	.	32ccc\ 32eee-	.
.	32E-\	.	32cc/	.	32cccc\	.
4CC/ 4C	32G\ 32c	.	32e-/ 32g	.	32ccc\ 32eee-	.
.	32E-\	.	32cc/	.	32cccc\	.
.	32G\ 32c	.	32e-/ 32g	.	32ccc\ 32eee-	.
.	32E-\	.	32cc/	.	32cccc\	.
.	32G\ 32c	.	32e-/ 32g	.	32ccc\ 32eee-	.
.	32E-\	.	32cc/	.	32cccc\	.
.	32G\ 32c	.	32e-/ 32g	.	32ccc\ 32eee-	.
.	32E-\	.	32cc/JJJ	.	32cccc\JJJ	.
4GGG/ 4GG	32G\ 32c	.	8.cc\L	.	8.ccc\L 8.cccc	.
.	32E-\	.	.	.	.	.
.	32G\ 32c	.	.	.	.	.
.	32E-\	.	.	.	.	.
.	32G\ 32c	.	.	.	.	.
.	32E-\	.	.	.	.	.
.	32G\ 32c	.	16dd\Jk	.	16ddd\Jk 16dddd	.
.	32E-\JJJ	.	.	.	.	.
=32	=32	=32	=32	=32	=32	=32
32FFF#X/LLL	32An\LLL 32c	.	8.ee-\L	.	8.eee-\L 8.eeee-	.
32FF#X/	32E-\	.	.	.	.	.
32FFF#/	32A\ 32c	.	.	.	.	.
32FF#/	32E-\	.	.	.	.	.
32FFF#/	32A\ 32c	.	.	.	.	.
32FF#/	32E-\	.	.	.	.	.
32FFF#/	32A\ 32c	.	16cc\Jk	.	16ccc\Jk 16cccc	.
32FF#/	32E-\	.	.	.	.	.
32FFF#/	32A\ 32c	.	8.cc\L	.	8.ccc\L 8.cccc	.
32FF#/	32E-\	.	.	.	.	.
32FFF#/	32A\ 32c	.	.	.	.	.
32FF#/	32E-\	.	.	.	.	.
32FFF#/	32A\ 32c	.	.	.	.	.
32FF#/	32E-\	.	.	.	.	.
32FFF#/	32A\ 32c	.	16an\Jk	.	16aan\Jk 16aaan	.
32FF#/	32E-\	.	.	.	.	.
32FFF#/	32A\ 32c	.	8.a/L	.	8.aa\L 8.aaa	.
32FF#/	32E-\	.	.	.	.	.
32FFF#/	32A\ 32c	.	.	.	.	.
32FF#/	32E-\	.	.	.	.	.
32FFF#/	32A\ 32c	.	.	.	.	.
32FF#/	32E-\	.	.	.	.	.
32FFF#/	32A\ 32c	.	16f#X/Jk	.	16ff#X\Jk 16fff#X	.
32FF#X/JJJ	32E-\JJJ	.	.	.	.	.
=33	=33	=33	=33	=33	=33	=33
32FFF#X/LLL	32An\LLL 32c	>	8.f#X\L	.	8.ff#X\L 8.fff#X	>
32FF#X/	32E-\	.	.	.	.	.
32FFF#/	32A\ 32c	.	.	.	.	.
32FF#/	32E-\	.	.	.	.	.
32FFF#/	32A\ 32c	.	.	.	.	.
32FF#/	32E-\	.	.	.	.	.
32FFF#/	32A\ 32c	.	16ee-\Jk	.	16eee-\Jk	.
32FF#/	32E-\	.	.	.	.	.
32FFF#/	32A\ 32c	.	8.ee-\L	.	8.eee-\L	.
32FF#/	32E-\	.	.	.	.	.
32FFF#/	32A\ 32c	.	.	.	.	.
32FF#/	32E-\	.	.	.	.	.
32FFF#/	32A\ 32c	.	.	.	.	.
32FF#/	32E-\	.	.	.	.	.
32FFF#/	32A\ 32c	.	16cc\Jk	.	16ccc\Jk	.
32FF#/	32E-\	.	.	.	.	.
32FFF#/	32A\ 32c	.	8.cc\L	.	8.ccc\L	.
32FF#/	32E-\	.	.	.	.	.
32FFF#/	32A\ 32c	.	.	.	.	.
32FF#/	32E-\	.	.	.	.	.
32FFF#/	32A\ 32c	.	.	.	.	.
32FF#/	32E-\	.	.	.	.	.
32FFF#/	32A\ 32c	.	16an\Jk	.	16aan\Jk	]
32FF#X/JJJ	32E-\JJJ	]	.	.	.	.
*	*	*	*	*	*X8va	*
=34	=34	=34	=34	=34	=34	=34
8.FFF#X/L 8.FF#X	[2.E-\ [2.An [2.c	p	[2.an/	.	[2.cc\ [2.ee- [2.aan	p
16FFF#/Jk 16FF#	.	.	.	.	.	.
4FFF#/ 4FF#	.	.	.	.	.	.
4FFF#/ 4FF#	.	.	.	.	.	.
=35	=35	=35	=35	=35	=35	=35
((2.FFF#X/ 2.FF#X	8.E-\L] 8.A] 8.c]	.	8.a/L]	.	8.cc\L] 8.ee-] 8.aa]	.
.	16E-\Jk 16An 16c	.	16an/Jk	.	16cc\Jk 16ee- 16aan	.
.	4E-\ 4A 4c	.	4a/	.	4cc\ 4ee- 4aa	.
.	4E-\ 4A 4c	.	4a/	.	4cc\ 4ee- 4aa	.
!LO:LB:g=original	!	!	!	!	!	!
=36	=36	=36	=36	=36	=36	=36
4GGG/)) 4GG	4D\ 4G 4Bn	p	4bn\	.	4dd\ 4gg	.
!	!	!	!	!	!LO:TX:a:t=Ob.	!
4r	[2G\	>	4r	.	4gg\	.
4r	.	.	(8.dd^<\L 8.ff	.	[4aa-^<\	.
.	.	]	16cc\Jk) 16ee-	.	.	.
!	!	!	!LO:LB:g=original	!	!	!
=37	=37	=37	=37	=37	=37	=37
2.r	2.G\_	.	2bn\ 2dd	.	4aa-\]	.
.	.	.	.	.	8.gg\L	.
.	.	.	.	.	16ff#X\Jk	.
.	.	.	8.cc^<\L 8.ee-	.	[4gg^<\	.
.	.	.	16b-X\Jk 16dd	.	.	.
=38	=38	=38	=38	=38	=38	=38
*	*	*	*^	*	*	*
2.r	2.G\]	.	2cc/	[2.a-\	.	4gg\]	.
.	.	.	.	.	.	8.ffn\L	.
.	.	.	.	.	.	16een\Jk	.
.	.	.	8.dd/L	.	.	[4ff^<\	.
.	.	.	16cc/Jk	.	.	.	.
=39	=39	=39	=39	=39	=39	=39	=39
2.r	[2.G\	.	4bn/	4a-\]	.	4ff\]	.
.	.	.	2cc/	4g\	.	8.ee-X\L	.
.	.	.	.	.	.	16dd\Jk	.
.	.	.	.	4f#X\	.	4ee-\	.
=40	=40	=40	=40	=40	=40	=40	=40
8.GG/L	4G\]	.	4bn/	4g\	.	4dd\	.
16FF#X/Jk	.	.	.	.	.	.	.
[2GG/	4r	.	4raa	4rcyy	.	4r	.
!	!	!	!LO:TX:a:t=Vni	!	!	!	!
.	8.d^<\L 8.f	.	[4a-^/	4rcyy	.	4r	.
.	16c\Jk 16e-	.	.	.	.	.	.
*	*	*	*v	*v	*	*	*
=41	=41	=41	=41	=41	=41	=41
2.GG/_	2Bn\ 2d	.	4a-/]	.	2.r	.
.	.	.	8.g/L	.	.	.
.	.	.	16f#X/Jk	.	.	.
.	8.c^<\L 8.e-	.	[4g^/	.	.	.
.	16B-X\Jk 16d	.	.	.	.	.
=42	=42	=42	=42	=42	=42	=42
*	*^	*	*	*	*	*
2.GG/_	2c/	[2.A-\	.	4g/]	.	2.r	.
.	.	.	.	8.fn/L	.	.	.
.	.	.	.	16en/Jk	.	.	.
.	8.d/L	.	.	[4f^/	.	.	.
.	16c/Jk	.	.	.	.	.	.
!LO:LB:g=original	!	!	!	!LO:LB:g=original	!	!	!
=43	=43	=43	=43	=43	=43	=43	=43
2.GG/_	4Bn/	4A-\]	.	4f/]	.	4r	.
.	2c/	4G\	.	8.e-X/L	.	4r	.
.	.	.	.	16d/Jk	.	.	.
.	.	4F#X\	.	4e-^>/	.	(4an^>/	.
=44	=44	=44	=44	=44	=44	=44	=44
*	*	*	*	*	*	*^	*
4GG/]	4Bn/	4G\	.	4d/	.	4g/)	4rcyy	.
8.GG/L	4rc	8.G\L	f	4r	.	4raa	4rcyy	.
16FF#X/Jk	.	16F#X\Jk	.	.	.	.	.	.
[4GG/	4rc	[4G\	.	4Bn/ 4d 4g	.	4gg/	4bn\ 4dd	f
=45	=45	=45	=45	=45	=45	=45	=45	=45
4GG/]	2.ryy	4G\]	.	2.Bn/ 2.d 2.a-	.	(2.aa-/	2.bn\ 2.dd	.
8.FFn/L	.	8.Fn\L	.	.	.	.	.	.
16EEn/Jk	.	16En\Jk	.	.	.	.	.	.
[4FF/	.	[>4F\	.	.	.	.	.	.
=46	=46	=46	=46	=46	=46	=46	=46	=46
*	*	*	*	*^	*	*	*	*
4FF/]	2.ryy	4F\]	.	2.g/	[2.c\	.	2.gg/	[2.cc\	.
8.EE-X/L	.	8.E-X\L	.	.	.	.	.	.	.
16DD/Jk	.	16D\Jk	.	.	.	.	.	.	.
4EE-/	.	4E-\	.	.	.	.	.	.	.
=47	=47	=47	=47	=47	=47	=47	=47	=47	=47
2.DD/	2.An/	2.D\	>	(2.f#X/	4c\]	>	4ff#X/)	4cc\]	.
.	.	.	.	.	4e-^>\	.	4raa	4rcyy	.
.	.	.	.	.	8.d\L	.	4raa	4rcyy	.
.	.	.	.	.	16c\Jk)	]	.	.	.
*	*	*	*	*	*	*	*v	*v	*
=48	=48	=48	=48	=48	=48	=48	=48	=48
2.GGG/ 2.GG	2.G/	2.G\	] p	4g/	2.Bn\	.	2.r	p
.	.	.	.	4a-^/	.	.	.	.
.	.	.	.	8.g/L	.	.	.	.
.	.	.	.	16f/Jk	.	.	.	.
*	*v	*v	*	*	*	*	*	*
!LO:LB:g=original	!	!	!	!LO:LB:g=original	!	!	!
=49	=49	=49	=49	=49	=49	=49	=49
(>2.AAA-/ 2.AA-	(2.A-\	.	(4f/	2.c\	.	2.r	.
.	.	.	8.e-/L	.	.	.	.
.	.	.	16d/Jk	.	.	.	.
.	.	.	[<4e-/	.	.	.	.
*	*	*	*v	*v	*	*	*
=50	=50	=50	=50	=50	=50	=50
!	!LO:TX:b:i:t=morendo	!	!LO:TX:a:i:t=morendo	!	!	!
!	!	!	!	!LO:TX:a:t=morendo:dur=5qe2s:ext=ud:problem:text with extention lines	!	!
2.FFF/ 2.FF	2.F\ 2.A-	.	4e-/]	.	2.r	.
.	.	.	4d/	.	.	.
.	.	.	[4d-X/)	.	.	.
=51	=51	=51	=51	=51	=51	=51
[2.GGG/ [2.GG	2.E-\ 2.G	.	4d-/]	.	2.r	.
.	.	.	8.c/L	.	.	.
.	.	.	16Bn/Jk	.	.	.
.	.	.	[4c/	.	.	.
=52	=52	=52	=52	=52	=52	=52
2GGG/]) 2GG]	2D\) 2G	.	4c/]	.	2.r	.
.	.	.	4Bn/	.	.	.
4r	4r	.	4r	.	.	.
*	*	*	*clefF4	*	*	*
=53	=53	=53	=53	=53	=53	=53
!LO:TX:a:t=2	!LO:TX:a:t=2	!	!LO:TX:a:t=Fag.	!	!LO:TX:a:t=Clar.	!
!LO:N:vis=0	!LO:N:vis=0	!	!	!	!	!
1.r	1.r	.	((2.G\ 2.d	.	((2.bn\ 2.ff	pp
=54	=54	=54	=54	=54	=54	=54
.	.	.	4A-\)) 4c	.	4cc\)) 4ee-	.
.	.	.	4r	.	4r	.
.	.	.	4r	.	4r	.
*	*clefG2	*	*	*	*	*
=55	=55	=55	=55	=55	=55	=55
!	!	!	!LO:TX:a:t=1	!	!LO:TX:a:t=1	!
4FF/ 4F	4c/ 4d 4a-	pp	2.r	.	2.r	.
4r	4r	.	.	.	.	.
4r	4r	.	.	.	.	.
=56	=56	=56	=56	=56	=56	=56
4GG/ 4G	4Bn/ 4d 4g	.	2.r;	.	2.r;	.
4r	4r	.	.	.	.	.
4r;	4r;	.	.	.	.	.
==	==	==	==	==	==	==
*-	*-	*-	*-	*-	*-	*-
!!!system-decoration: {(s1,s2)}{(s3,s4)}
!!!RDF**kern: > = above
!!!RDF**kern: < = below
!!!ENC: Mateusz Solarz
!!!END: 2022-07-25
!!!ENC: Jan Barakat
!!!END: 2022-08-15
!!!YEC: Copyright 2022 Narodowy Instytut Fryderyka Chopina (https://polishscores.org)
!!!YEM: License CC-BY-4.0 (https://creativecommons.org/licenses/by/4.0)
